src/android-apps.svg

<?xml version="1.0" encoding="utf-8"?>
<!-- Generated by IcoMoon.io -->
<!DOCTYPE svg PUBLIC "-//W3C//DTD SVG 1.1//EN" "http://www.w3.org/Graphics/SVG/1.1/DTD/svg11.dtd">
<svg version="1.1" xmlns="http://www.w3.org/2000/svg" xmlns:xlink="http://www.w3.org/1999/xlink" width="512" height="512" viewBox="0 0 512 512">
<path fill="#000000" d="M96 176h80v-80h-80v80zM216 416h80v-80h-80v80zM96 416h80v-80h-80v80zM96 296h80v-80h-80v80zM216 296h80v-80h-80v80zM336 96v80h80v-80h-80zM216 176h80v-80h-80v80zM336 296h80v-80h-80v80zM336 416h80v-80h-80v80z"></path>
</svg>

<?xml version="1.0" encoding="utf-8"?>
<!-- Generator: Adobe Illustrator 16.2.1, SVG Export Plug-In . SVG Version: 6.00 Build 0)  -->
<!DOCTYPE svg PUBLIC "-//W3C//DTD SVG 1.1//EN" "http://www.w3.org/Graphics/SVG/1.1/DTD/svg11.dtd">
<svg version="1.1" id="Layer_1" xmlns="http://www.w3.org/2000/svg" xmlns:xlink="http://www.w3.org/1999/xlink" x="0px" y="0px"
	 width="512px" height="512px" viewBox="0 0 512 512" enable-background="new 0 0 512 512" xml:space="preserve">
<g id="Icon">
	<g>
		<path d="M96,176h80V96H96V176z M216,416h80v-80h-80V416z M96,416h80v-80H96V416z M96,296h80v-80H96V296z M216,296h80v-80h-80V296z
			 M336,96v80h80V96H336z M216,176h80V96h-80V176z M336,296h80v-80h-80V296z M336,416h80v-80h-80V416z"/>
	</g>
</g>
</svg>
